X:165
T:The Back of the Change House (Dance)
O:No 165 William Clarke of Feltwell
M:C
L:1/8
K:D
B| AFAf edBd|AFAB dedB|AFAf edBg| (f/g/a) AB d2z:||/
 g| fede edBa| fedf abag|fedf edBg| (f/g/a) AB d3 g|/
 fedf edBg| fedf abaf|gafg edBb|afge d3||

